www/assets/icons/shopping_basket.svg

<svg width="24" height="24" viewBox="0 0 24 24" xmlns="http://www.w3.org/2000/svg" fill='currentColor'><path d="M17.21 9.48977L12.83 2.92977C12.64 2.64977 12.32 2.50977 12 2.50977C11.68 2.50977 11.36 2.64977 11.17 2.93977L6.79 9.48977H2C1.45 9.48977 1 9.93977 1 10.4898C1 10.5798 1.01 10.6698 1.04 10.7598L3.58 20.0298C3.81 20.8698 4.58 21.4898 5.5 21.4898H18.5C19.42 21.4898 20.19 20.8698 20.43 20.0298L22.97 10.7598L23 10.4898C23 9.93977 22.55 9.48977 22 9.48977H17.21ZM9 9.48977L12 5.08977L15 9.48977H9ZM12 17.4898C10.9 17.4898 10 16.5898 10 15.4898C10 14.3898 10.9 13.4898 12 13.4898C13.1 13.4898 14 14.3898 14 15.4898C14 16.5898 13.1 17.4898 12 17.4898Z"/></svg>

<svg xmlns="http://www.w3.org/2000/svg" width="24" height="24" viewBox="0 0 24 24" fill='currentColor'><path d="m17.21 9.49-4.38-6.56a1 1 0 0 0-.83-.42c-.32 0-.64.14-.83.43L6.79 9.49H2c-.55 0-1 .45-1 1 0 .09.01.18.04.27l2.54 9.27c.23.84 1 1.46 1.92 1.46h13c.92 0 1.69-.62 1.93-1.46l2.54-9.27.03-.27c0-.55-.45-1-1-1zM9 9.49l3-4.4 3 4.4zm3 8c-1.1 0-2-.9-2-2s.9-2 2-2 2 .9 2 2-.9 2-2 2"/></svg>
